src/svg/arrow-alt-circle-right.svg

<svg height="1000" width="1000.0" xmlns="http://www.w3.org/2000/svg">
    <path d="m500 15.6c267.6 0 484.4 216.8 484.4 484.4s-216.8 484.4-484.4 484.4-484.4-216.8-484.4-484.4 216.8-484.4 484.4-484.4z m-226.6 570.3h226.6v138.5c0 20.9 25.4 31.5 40 16.6l223.3-224.4c9.2-9.2 9.2-23.8 0-33l-223.3-224.6c-14.8-14.9-40-4.3-40 16.6v138.5h-226.6c-12.9 0-23.4 10.5-23.4 23.4v125c0 12.9 10.5 23.4 23.4 23.4z" />
  </svg>

<svg height="1000" width="1000" xmlns="http://www.w3.org/2000/svg"><path d="M500 15.6c267.6 0 484.4 216.8 484.4 484.4S767.6 984.4 500 984.4 15.6 767.6 15.6 500 232.4 15.6 500 15.6zM273.4 585.9H500v138.5c0 20.9 25.4 31.5 40 16.6L763.3 516.6c9.2 -9.2 9.2 -23.8 0 -33L540 259c-14.8 -14.9 -40 -4.3 -40 16.6v138.5H273.4c-12.9 0 -23.4 10.5 -23.4 23.4v125c0 12.9 10.5 23.4 23.4 23.4z"/></svg>
